X: 1
T: The Faithful Swain #1   [G]
T: The Constant Lover
Z: Bruce Shawyer (chords by John Chambers)
M: C|
K: G
K:G
M:4/4
L:1/16
dc |\
"G"Bcde "D7"dcBA | "G"G2G2 G2g2 | "D7"f2e2 f2g2 | a4 A4 |\
"G"Bcde "D7"dcBA | "G(Em)"G2G2 G2g2 | "D7"fad2 "C"eg"D"fa | "G"g6 :|
|: ag |\
"D7"fgab agfe | d2d2 d2f2 | "G"g2a2 b2ab | "C"c'4 "G"b4 |\
"Am"abag "D7"fgfe | dedc "G"B2d2 | "C"e2"D"df "C"eg"D"fa | "G"g6 :|

%%sep 2 1 500

